assets/post/images/bufferoverflow1.svg

<svg xmlns="http://www.w3.org/2000/svg" width="2143" height="1277" overflow="hidden"><defs><clipPath id="a"><path d="M89 40h2143v1277H89z"/></clipPath></defs><g clip-path="url(#a)" transform="translate(-89 -40)"><path fill="#fdefe8" fill-rule="evenodd" d="M91.667 382.708h497.291v199.375H91.667Zm0 467.042h497.291v318.08H91.667Z"/><path fill="none" stroke="#000" stroke-linejoin="round" stroke-miterlimit="10" stroke-width="4.583" d="M89.375 382.708H591.25M89.375 582.083H591.25M89.375 715.917H591.25M89.375 849.75H591.25M89.375 1167.83H591.25M91.667 41.25v1260.42M588.958 41.25v1260.42"/><text font-family="Microsoft YaHei,Microsoft YaHei_MSFontService,sans-serif" font-size="55" font-weight="400" transform="translate(285.312 502)">参数<tspan x="-55" y="167">返回地址</tspan><tspan x="-110" y="301">上一个帧指针</tspan><tspan x="-111.375" y="456" font-family="Courier New,Courier New_MSFontService,sans-serif">buffer[99]</tspan></text><text font-family="Cambria Math,Cambria Math_MSFontService,sans-serif" font-size="55" font-weight="400" transform="translate(331.49 1025)">⋮</text><text font-family="Courier New,Courier New_MSFontService,sans-serif" font-size="55" font-weight="400" transform="translate(190.552 1090)">buffer[0]</text><path fill="#f8ccb9" fill-rule="evenodd" d="M827.292 169.583h380.418v171.875H827.292Zm0 414.792h380.418v132.917H827.292Z"/><path fill="none" stroke="#000" stroke-linejoin="round" stroke-miterlimit="10" stroke-width="4.583" d="M825 341.458h385M825 584.375h385M825 717.292h385m-382.708-550V1174.31M1207.71 167.292V1174.31M825 169.583h385M825 1172.02h385"/><text fill="#d74514" font-family="Microsoft YaHei,Microsoft YaHei_MSFontService,sans-serif" font-size="55" font-weight="700" transform="translate(907.5 276)">恶意代码<tspan x="-27.5" y="395">新返回地址</tspan></text><path fill="#f8ccb9" fill-rule="evenodd" d="M1471.25 167.635h497.29V339.51h-497.29Zm0 414.791h497.29v132.917h-497.29Z"/><path fill="none" stroke="#000" stroke-linejoin="round" stroke-miterlimit="10" stroke-width="4.583" d="M1468.96 167.635h501.87M1468.96 339.51h501.87m-501.87 242.916h501.87m-501.87 132.917h501.87m-501.87 133.819h501.87m-501.87 318.308h501.87M1471.25 40.312V1301.29M1968.54 40.312V1301.29"/><text fill="#d74514" font-family="Microsoft YaHei,Microsoft YaHei_MSFontService,sans-serif" font-size="55" font-weight="700" transform="translate(1609.9 274)">恶意代码<tspan x="9.167" y="207" font-weight="400">(</tspan><tspan x="27.5" y="207" font-weight="400">被覆盖</tspan><tspan x="192.5" y="207" font-weight="400">)</tspan><tspan x="-27.5" y="395">新返回地址</tspan><tspan x="9.167" y="528" font-weight="400">(</tspan><tspan x="27.5" y="528" font-weight="400">被覆盖</tspan><tspan x="192.5" y="528" font-weight="400">)</tspan><tspan x="9.167" y="754" font-weight="400">(</tspan><tspan x="27.5" y="754" font-weight="400">被覆盖</tspan><tspan x="192.5" y="754" font-weight="400">)</tspan></text><path fill="#d74514" fill-rule="evenodd" d="M635 651.75h54.75V597h36.5v54.75H781v37.5h-54.75V744h-36.5v-54.75H635Zm619-8.812h76.83V597l94.17 73.5-94.17 73.5v-45.937H1254Z"/><text fill="#5d1709" font-family="Microsoft YaHei,Microsoft YaHei_MSFontService,sans-serif" font-size="73" font-weight="400" transform="translate(873.067 1255)">(<tspan x="24.635" y="0">badfile</tspan><tspan x="264.229" y="0">)</tspan><tspan x="1101.1" y="-375">←</tspan><tspan x="1174.43" y="-375">ebp</tspan></text><path fill="#d74514" d="m1962.66 647.996 17.25-26.438-.03.042 16.69-26.188-.03.053 8-12.938-.04.061 7.69-12.875-.04.067 7.25-12.625-.05.096 6.75-12.437-.06.103 6.25-12.25-.06.138 5.62-12-.06.142 5-11.687-.09.206 4.25-11.437-.08.236 3.44-11.062-.08.291 2.56-10.687-.07.355 1.63-10.313-.05.426.63-9.938-.01.5-.44-9.437.05.475-1.37-9.062.11.521-2.38-8.688.14.433-3.18-8.313.18.422-4-7.938.21.37-4.81-7.688.18.268-5.38-7.375.22.27-6.07-7.125.17.18-6.57-6.938.15.15-7-6.75.15.137-7.44-6.562.19.16-8-6.324 5.68-7.194 8.1 6.402 7.61 6.712 7.15 6.893 6.72 7.102 6.25 7.348 5.57 7.645 5.01 8.005 4.2 8.333 3.35 8.74 2.51 9.165 1.45 9.563.46 9.926-.65 10.401-1.69 10.704-2.64 11.01-3.52 11.326-4.33 11.659-5.08 11.862-5.69 12.14-6.31 12.37-6.8 12.537-7.3 12.707-7.73 12.939-8.03 12.994-16.72 26.235-17.26 26.458Zm30.01-261.541L1970 340.5l50.37 9.436Z"/></g></svg>

<svg width="2143" height="1277" xmlns="http://www.w3.org/2000/svg" xmlns:xlink="http://www.w3.org/1999/xlink" overflow="hidden"><defs><clipPath id="clip0"><rect x="89" y="40" width="2143" height="1277"/></clipPath></defs><g clip-path="url(#clip0)" transform="translate(-89 -40)"><path d="M91.6667 382.708 588.958 382.708 588.958 582.083 91.6667 582.083Z" fill="#FDEFE8" fill-rule="evenodd"/><path d="M91.6667 849.75 588.958 849.75 588.958 1167.83 91.6667 1167.83Z" fill="#FDEFE8" fill-rule="evenodd"/><path d="M89.375 382.708 591.25 382.708" stroke="#000000" stroke-width="4.58333" stroke-linejoin="round" stroke-miterlimit="10" fill="none" fill-rule="evenodd"/><path d="M89.375 582.083 591.25 582.083" stroke="#000000" stroke-width="4.58333" stroke-linejoin="round" stroke-miterlimit="10" fill="none" fill-rule="evenodd"/><path d="M89.375 715.917 591.25 715.917" stroke="#000000" stroke-width="4.58333" stroke-linejoin="round" stroke-miterlimit="10" fill="none" fill-rule="evenodd"/><path d="M89.375 849.75 591.25 849.75" stroke="#000000" stroke-width="4.58333" stroke-linejoin="round" stroke-miterlimit="10" fill="none" fill-rule="evenodd"/><path d="M89.375 1167.83 591.25 1167.83" stroke="#000000" stroke-width="4.58333" stroke-linejoin="round" stroke-miterlimit="10" fill="none" fill-rule="evenodd"/><path d="M91.6667 41.25 91.6667 1301.67" stroke="#000000" stroke-width="4.58333" stroke-linejoin="round" stroke-miterlimit="10" fill="none" fill-rule="evenodd"/><path d="M588.958 41.25 588.958 1301.67" stroke="#000000" stroke-width="4.58333" stroke-linejoin="round" stroke-miterlimit="10" fill="none" fill-rule="evenodd"/><text font-family="Microsoft YaHei,Microsoft YaHei_MSFontService,sans-serif" font-weight="400" font-size="55" transform="matrix(1 0 0 1 285.312 502)">参数<tspan font-size="55" x="-55" y="167">返回地址</tspan><tspan font-size="55" x="-110" y="301">上一个帧指针</tspan><tspan font-family="Courier New,Courier New_MSFontService,sans-serif" font-size="55" x="-111.375" y="456">buffer[99]</tspan></text><text font-family="Cambria Math,Cambria Math_MSFontService,sans-serif" font-weight="400" font-size="55" transform="translate(331.49 1025)">⋮</text><text font-family="Courier New,Courier New_MSFontService,sans-serif" font-weight="400" font-size="55" transform="matrix(1 0 0 1 190.552 1090)">buffer[0]</text><path d="M827.292 169.583 1207.71 169.583 1207.71 341.458 827.292 341.458Z" fill="#F8CCB9" fill-rule="evenodd"/><path d="M827.292 584.375 1207.71 584.375 1207.71 717.292 827.292 717.292Z" fill="#F8CCB9" fill-rule="evenodd"/><path d="M825 341.458 1210 341.458" stroke="#000000" stroke-width="4.58333" stroke-linejoin="round" stroke-miterlimit="10" fill="none" fill-rule="evenodd"/><path d="M825 584.375 1210 584.375" stroke="#000000" stroke-width="4.58333" stroke-linejoin="round" stroke-miterlimit="10" fill="none" fill-rule="evenodd"/><path d="M825 717.292 1210 717.292" stroke="#000000" stroke-width="4.58333" stroke-linejoin="round" stroke-miterlimit="10" fill="none" fill-rule="evenodd"/><path d="M827.292 167.292 827.292 1174.31" stroke="#000000" stroke-width="4.58333" stroke-linejoin="round" stroke-miterlimit="10" fill="none" fill-rule="evenodd"/><path d="M1207.71 167.292 1207.71 1174.31" stroke="#000000" stroke-width="4.58333" stroke-linejoin="round" stroke-miterlimit="10" fill="none" fill-rule="evenodd"/><path d="M825 169.583 1210 169.583" stroke="#000000" stroke-width="4.58333" stroke-linejoin="round" stroke-miterlimit="10" fill="none" fill-rule="evenodd"/><path d="M825 1172.02 1210 1172.02" stroke="#000000" stroke-width="4.58333" stroke-linejoin="round" stroke-miterlimit="10" fill="none" fill-rule="evenodd"/><text fill="#D74514" font-family="Microsoft YaHei,Microsoft YaHei_MSFontService,sans-serif" font-weight="700" font-size="55" transform="matrix(1 0 0 1 907.5 276)">恶意代码<tspan font-size="55" x="-27.5" y="395">新返回地址</tspan></text><path d="M1471.25 167.635 1968.54 167.635 1968.54 339.51 1471.25 339.51Z" fill="#F8CCB9" fill-rule="evenodd"/><path d="M1471.25 582.426 1968.54 582.426 1968.54 715.343 1471.25 715.343Z" fill="#F8CCB9" fill-rule="evenodd"/><path d="M1468.96 167.635 1970.83 167.635" stroke="#000000" stroke-width="4.58333" stroke-linejoin="round" stroke-miterlimit="10" fill="none" fill-rule="evenodd"/><path d="M1468.96 339.51 1970.83 339.51" stroke="#000000" stroke-width="4.58333" stroke-linejoin="round" stroke-miterlimit="10" fill="none" fill-rule="evenodd"/><path d="M1468.96 582.426 1970.83 582.426" stroke="#000000" stroke-width="4.58333" stroke-linejoin="round" stroke-miterlimit="10" fill="none" fill-rule="evenodd"/><path d="M1468.96 715.343 1970.83 715.343" stroke="#000000" stroke-width="4.58333" stroke-linejoin="round" stroke-miterlimit="10" fill="none" fill-rule="evenodd"/><path d="M1468.96 849.162 1970.83 849.162" stroke="#000000" stroke-width="4.58333" stroke-linejoin="round" stroke-miterlimit="10" fill="none" fill-rule="evenodd"/><path d="M1468.96 1167.47 1970.83 1167.47" stroke="#000000" stroke-width="4.58333" stroke-linejoin="round" stroke-miterlimit="10" fill="none" fill-rule="evenodd"/><path d="M1471.25 40.3117 1471.25 1301.29" stroke="#000000" stroke-width="4.58333" stroke-linejoin="round" stroke-miterlimit="10" fill="none" fill-rule="evenodd"/><path d="M1968.54 40.3117 1968.54 1301.29" stroke="#000000" stroke-width="4.58333" stroke-linejoin="round" stroke-miterlimit="10" fill="none" fill-rule="evenodd"/><text fill="#D74514" font-family="Microsoft YaHei,Microsoft YaHei_MSFontService,sans-serif" font-weight="700" font-size="55" transform="matrix(1 0 0 1 1609.9 274)">恶意代码<tspan font-weight="400" font-size="55" x="9.16663" y="207">(</tspan><tspan font-weight="400" font-size="55" x="27.5" y="207">被覆盖</tspan><tspan font-weight="400" font-size="55" x="192.5" y="207">)</tspan><tspan font-size="55" x="-27.5" y="395">新返回地址</tspan><tspan font-weight="400" font-size="55" x="9.16663" y="528">(</tspan><tspan font-weight="400" font-size="55" x="27.5" y="528">被覆盖</tspan><tspan font-weight="400" font-size="55" x="192.5" y="528">)</tspan><tspan font-weight="400" font-size="55" x="9.16663" y="754">(</tspan><tspan font-weight="400" font-size="55" x="27.5" y="754">被覆盖</tspan><tspan font-weight="400" font-size="55" x="192.5" y="754">)</tspan></text><path d="M635 651.75 689.75 651.75 689.75 597 726.25 597 726.25 651.75 781 651.75 781 689.25 726.25 689.25 726.25 744 689.75 744 689.75 689.25 635 689.25Z" fill="#D74514" fill-rule="evenodd"/><path d="M1254 642.938 1330.83 642.938 1330.83 597 1425 670.5 1330.83 744 1330.83 698.063 1254 698.063Z" fill="#D74514" fill-rule="evenodd"/><text fill="#5D1709" font-family="Microsoft YaHei,Microsoft YaHei_MSFontService,sans-serif" font-weight="400" font-size="73" transform="matrix(1 0 0 1 873.067 1255)">(<tspan font-size="73" x="24.6354" y="0">badfile</tspan><tspan font-size="73" x="264.229" y="0">)</tspan><tspan font-size="73" x="1101.1" y="-375">←</tspan><tspan font-size="73" x="1174.43" y="-375">ebp</tspan></text><path d="M1962.66 647.996 1979.91 621.558 1979.88 621.6 1996.57 595.412 1996.54 595.465 2004.54 582.527 2004.5 582.588 2012.19 569.713 2012.15 569.78 2019.4 557.155 2019.35 557.251 2026.1 544.814 2026.04 544.917 2032.29 532.667 2032.23 532.805 2037.85 520.805 2037.79 520.947 2042.79 509.26 2042.7 509.466 2046.95 498.029 2046.87 498.265 2050.31 487.203 2050.23 487.494 2052.79 476.807 2052.72 477.162 2054.35 466.849 2054.3 467.275 2054.93 457.337 2054.92 457.837 2054.48 448.4 2054.53 448.875 2053.16 439.813 2053.27 440.334 2050.89 431.646 2051.03 432.079 2047.85 423.766 2048.03 424.188 2044.03 416.25 2044.24 416.62 2039.43 408.932 2039.61 409.2 2034.23 401.825 2034.45 402.095 2028.38 394.97 2028.55 395.15 2021.98 388.212 2022.13 388.362 2015.13 381.612 2015.28 381.749 2007.84 375.187 2008.03 375.347 2000.03 369.023 2005.71 361.829 2013.81 368.231 2021.42 374.943 2028.57 381.836 2035.29 388.938 2041.54 396.286 2047.11 403.931 2052.12 411.936 2056.32 420.269 2059.67 429.009 2062.18 438.174 2063.63 447.737 2064.09 457.663 2063.44 468.064 2061.75 478.768 2059.11 489.778 2055.59 501.104 2051.26 512.763 2046.18 524.625 2040.49 536.765 2034.18 549.135 2027.38 561.672 2020.08 574.379 2012.35 587.318 2004.32 600.312 1987.6 626.547 1970.34 653.005ZM1992.67 386.455 1970 340.5 2020.37 349.936Z" fill="#D74514"/></g></svg>
